!!!COM: Bach, Johann Sebastian
!!!OTA: Das wohltemperirte Clavier
!!!OPR: Das wohltemperierte Klavier
!!!OTL: Fuga 15, Vol. 1
!!!XEN: The Well-Tempered Clavier, Volume 1, Fugue 15.
!!!ONB: G major, 3-part
!!!SCT: BWV 860b
!!!YEC: Copyright 1994, David Huron
!!!YEM: Rights to all derivative electronic formats reserved.
!!!RNB: The texture increases to five voices in the final three measures.
**kern	**kern	**kern
*staff2	*staff1	*staff1
*clefF4	*clefG2	*clefG2
*k[f#]	*k[f#]	*k[f#]
*M6/8	*M6/8	*M6/8
*G:	*G:	*G:
*MM102	*MM102	*MM102
=1	=1	=1
2.r	2.r	8g
.	.	16a
.	.	16g
.	.	16f#
.	.	16g
.	.	8a
.	.	16b
.	.	16a
.	.	16g
.	.	16a
=2	=2	=2
2.r	2.r	8b
.	.	8a
.	.	8g
.	.	8d
.	.	4cc
=3	=3	=3
2.r	2.r	8b
.	.	8a
.	.	8g
.	.	8f#
.	.	4ee
=4	=4	=4
2.r	2.r	8dd
.	.	16ee
.	.	16dd
.	.	16cc
.	.	16b
.	.	8a
.	.	16cc
.	.	16b
.	.	16a
.	.	16g
=5	=5	=5
2.r	8d	8f#
.	16e	8g
.	16d	.
.	16c#	8a
.	16d	.
.	8e	8g
.	16f#	8a
.	16e	.
.	16d	8b
.	16e	.
=6	=6	=6
2.r	8f#	8a
.	8e	16b
.	.	16cc#
.	8d	16dd
.	.	16b
.	8A	16cc#
.	.	16b
.	4g	16cc#
.	.	16dd
.	.	16ee
.	.	16cc#
=7	=7	=7
2.r	8f#	16dd
.	.	16cc#
.	8e	16dd
.	.	16ee
.	8d	16ff#
.	.	16dd
.	8c#	16ee
.	.	16dd
.	4b	16ee
.	.	16ff#
.	.	16gg
.	.	16ee
=8	=8	=8
2.r	8a	8ff#
.	16b	16gg
.	16a	16ff#
.	16g	16ee
.	16f#	16dd
.	8e	[4.gg
.	16g	.
.	16f#	.
.	16e	.
.	16d	.
=9	=9	=9
2.r	8c#	16gg]
.	.	16ff#
.	8g	16ee
.	.	16gg
.	8f#	16dd
.	.	16gg
.	8e	16cc#
.	.	16gg
.	8d	16b
.	.	16gg
.	8c#	16a
.	.	16gg
=10	=10	=10
2.r	16d	8ff#
.	16e	.
.	16f#	8dd
.	16d	.
.	16g	8ee
.	16d	.
.	16a	8ff#
.	16d	.
.	16b	8gg
.	16d	.
.	16ccn	[8aa
.	16d	.
=11	=11	=11
8G	4.b	8aa]
16A	.	8dd
16G	.	.
16F#	.	[8gg
16G	.	.
8A	[4.cc	8gg]
16B	.	8ff#
16A	.	.
16G	.	8ee
16A	.	.
=12	=12	=12
8B	8cc]	8dd
8A	8f#	8cc
8G	[8g	8b
8D	8g]	4a
4c	16f#	.
.	16g	.
.	16a	8r
.	16f#	.
=13	=13	=13
8B	16g	8r
.	16f#	.
8A	16g	8r
.	16a	.
8G	16b	[8dd
.	16g	.
8F#	16a	8dd]
.	16g	.
4e	16a	8cc
.	16b	.
.	16cc	[8aa
.	16a	.
=14	=14	=14
8d	8b	8aa]
16e	16cc	[4gg
16d	16b	.
16c	16a	.
16B	16g	.
8A	[4.cc	8gg]
16c	.	16aa
16B	.	16gg
16A	.	16ff#
16G	.	16ee
=15	=15	=15
4F#	16cc]	[2.dd
.	16b	.
.	16a	.
.	16cc	.
8E	16g	.
.	16cc	.
16D	16f#	.
16E	16cc	.
16D	16e	.
16C	16cc	.
16BB	16d	.
16AA	16cc	.
=16	=16	=16
16GG	8b	8dd]
16AA	.	.
16BB	8fn	8dd
16GG	.	.
16C	8e	8cc
16GG	.	.
16D	8d	8b
16GG	.	.
16E	8c	8a
16GG	.	.
16Fn	8B	8g
16GG	.	.
=17	=17	=17
16E	8r	16cc
16D	.	16dd
16C	8r	[4ee
16E	.	.
16BB	8g	.
16E	.	.
16AA	[4.f#	16ee]
16E	.	16dd
16GG	.	16cc
16E	.	16b
16FF#	.	16a
16E	.	16cc
=18	=18	=18
16D	4f#]	16b
16C	.	16cc
16BB	.	[4dd
16D	.	.
16AA	8f#	.
16D	.	.
16GG	[4.e	16dd]
16D	.	16cc
16FF#	.	16b
16D	.	16a
16EE	.	16g
16D	.	16b
=19	=19	=19
16C	4e]	16a
16BB	.	16b
16AA	.	[4cc
16C	.	.
16GG	8e	.
16C	.	.
16FF#	4.d	16cc]
16C	.	16b
16EE	.	16a
16C	.	16g
16DD	.	16f#
16C	.	16a
=20	=20	=20
8BB	8d	16g
.	.	16a
8AA	16c	[4b
.	16d	.
8GG	16e	.
.	16d	.
8AA	8c	8b]
8GG	16B	8e
.	16c	.
8FF#	16d	[8a
.	16c	.
=21	=21	=21
16GG	8B	16a]
16G	.	16g
16Fn	8c	8a
16E	.	.
16D	8d	8b
16F	.	.
16E	8g	16cc
16F	.	16dd
16E	4A	16cc
16D	.	16b
16C	.	16a
16E	.	16g
=22	=22	=22
16D	8B	8.f#M
16E	.	.
16D	8c	.
16C	.	32e
.	.	32f#
16BB	8d	[8g
16D	.	.
16C	8e	16g]
16D	.	16b
16C	4F#	16a
16BB	.	16g
16AA	.	16f#
16C	.	16e
=23	=23	=23
16BB	8G	8d
16C	.	.
16BB	16G	8r
16AA	16A	.
16GG	16B	8r
16AA	16c#	.
16BB	8d	4r
16C#	.	.
16D	16B	.
16E	16c#	.
16F#	16d	8r
16G	16e	.
=24	=24	=24
8F#	8f#	8a
8B	8e	16g
.	.	16a
8BB	8d#	16b
.	.	16a
8E	8e	8g
8A	8dn	16f#
.	.	16g
8AA	8c#	16a
.	.	16g
=25	=25	=25
8D	8d	8f#
8E	16c#	8g
.	16B	.
[8F#	16A	8a
.	16cn	.
8F#]	16B	8dd
.	16c	.
8G	16B	4eT
.	16A	.
8C#	16G	.
.	16B	.
=26	=26	=26
8D	16A	8f#
.	16B	.
8r	16A	8g
.	16G	.
8r	16F#	8a
.	16A	.
4r	16G	8b
.	16A	.
.	16G	4c#T
.	16F#	.
8r	16E	.
.	16G	.
=27	=27	=27
2.r	16F#	8d
.	16G	.
.	16F#	16d
.	16E	16e
.	16D	16f#
.	16E	16g
.	16F#	8a
.	16G	.
.	16A	16f#
.	16B	16g
.	16c	16a
.	16d	16b
=28	=28	=28
8D	8F#	4cc
16C	8a	.
16D	.	.
16E	[8g	8b
16D	.	.
8C	8g]	4.a
16BB	8g	.
16C	.	.
16D	8f#	.
16C	.	.
=29	=29	=29
8BB	8g	16g
.	.	16gg
8C	8r	16ff#
.	.	16ee
8D	8r	16dd
.	.	16ff#
8G	4r	16ee
.	.	16ff#
4AA	.	16ee
.	.	16dd
.	8r	16cc
.	.	16ee
=30	=30	=30
8BB	2.r	16dd
.	.	16ee
8C	.	16dd
.	.	16cc
8D	.	16b
.	.	16dd
8E	.	16cc
.	.	16dd
4FF#	.	16cc
.	.	16b
.	.	16a
.	.	16cc
=31	=31	=31
16GG	8r	16b
16AA	.	16a
[4BB	8r	16g
.	.	16b
.	8d	16f#
.	.	16b
16BB]	8c#	16e
16AA	.	16b
16GG	8r	16d
16FF#	.	16b
16EE	8r	16c#
16GG	.	16b
=32	=32	=32
16FF#	8r	16a
16GG	.	16g
[4AA	8r	16f#
.	.	16a
.	8c#	16e
.	.	16a
16AA]	8B	16d
16GG	.	16a
16FF#	8r	16c#
16EE	.	16a
16DD	8r	16B
16FF#	.	16a
=33	=33	=33
16EE	8r	16g
16FF#	.	16f#
[4GG	8r	16e
.	.	16g
.	8B	16d
.	.	16g
16GG]	8A	16c#
16FF#	.	16g
16EE	8r	16B
16DD	.	16g
16CC#	8r	16A
16EE	.	16g
=34	=34	=34
16DD	2.r	16f#
16EE	.	16dd
16FF#	.	16ccn
16DD	.	16b
16GG	.	16a
16DD	.	16g
16AA	.	16f#
16DD	.	16e
16BB	.	16d
16DD	.	16c
16C	.	16B
16DD	.	16A
=35	=35	=35
16BB	2.r	16G
16G	.	16A
16Fn	.	16B
16E	.	16G
16D	.	16c
16C	.	16G
16BB	.	16d
16AA	.	16G
16GG	.	16e
16FFn	.	16G
16EE	.	16fn
16DD	.	16G
=36	=36	=36
16CC	2.r	16e
16DD	.	16cc
16EE	.	16b
16FF#	.	16dd
16GG#	.	16a
16AA	.	16dd
16BB	.	16g#
16C	.	16dd
16D	.	16f#
16E	.	16dd
16F#	.	16e
16G#	.	16dd
=37	=37	=37
16A	2.r	16cc
16Gn	.	16a
16F#	.	16b
16A	.	16cc#
16E	.	16dd#
16A	.	16ee
16D#	.	16ff#
16A	.	16gg
16C#	.	16aa
16A	.	16bb
16BB	.	16cccn
16A	.	16dd#
=38	=38	=38
8G	2.r	8ee
8c	.	16ff#
.	.	16ee
8B	.	16dd#
.	.	16ee
8A	.	8ff#
8B	.	16gg
.	.	16ff#
8BB	.	16ee
.	.	16ff#
=39	=39	=39
16E	2.r	8gg
16F#	.	.
16G	.	8ff#
16E	.	.
16A	.	8ee
16E	.	.
16B	.	8b
16E	.	.
16c#	.	4aa
16E	.	.
16d#	.	.
16E	.	.
=40	=40	=40
8e	16e	8gg
.	16d#	.
8r	16e	8ff#
.	16f#	.
8r	16g	8ee
.	16e	.
4r	16f#	8dd#
.	16e	.
.	16f#	4ccc
.	16g	.
8r	16a	.
.	16f#	.
=41	=41	=41
2.r	8g	8bb
.	16a	16ccc
.	16g	16bb
.	16f#	16aa
.	16e	16gg
.	[4.a	8ff#
.	.	16aa
.	.	16gg
.	.	16ff#
.	.	16ee
=42	=42	=42
2.r	16a]	8dd#
.	16g	.
.	16f#	8aa
.	16a	.
.	16e	8gg
.	16a	.
.	16d#	8ff#
.	16a	.
.	16c#	8ee
.	16a	.
.	16B	8dd#
.	16a	.
=43	=43	=43
2.r	8g	8ee
.	16f#	8ddn
.	16g	.
.	16a	8cc
.	16g	.
.	8f#	8dd
.	16e	8cc
.	16f#	.
.	16g	8b
.	16f#	.
=44	=44	=44
2.r	8e	16cc
.	.	16ccc
.	8f#	16bb
.	.	16aa
.	8g	16gg
.	.	16bb
.	8cc	16aa
.	.	16bb
.	4d#	16aa
.	.	16gg
.	.	16ff#
.	.	16aa
=45	=45	=45
2.r	8e	16gg
.	.	16aa
.	8f#	16gg
.	.	16ff#
.	8g	16ee
.	.	16gg
.	8a	16ff#
.	.	16gg
.	4B	16ff#
.	.	16ee
.	.	16dd#
.	.	16ff#
=46	=46	=46
2.r	16c	8ee
.	16B	.
.	16A	16ff#
.	16B	16gg
.	16c	[8aa
.	16d	.
.	16e	8aa]
.	16d#	.
.	16e	16gg
.	16f#	16aa
.	16g	[8bb
.	16a	.
=47	=47	=47
16r	[4.b	8bb]
32BB	.	.
32C#	.	.
16D#	.	8aa
16BB	.	.
16E	.	8gg
16BB	.	.
16F#	8b]	16ff#
16BB	.	16gg
16G	8cc	8aa
16BB	.	.
16A	8f#	8dd#
16BB	.	.
=48	=48	=48
16G	16e	4ee
16F#	16f#	.
16E	[4g	.
16G	.	.
16D	.	8b
16G	.	.
16C#	16g]	[4.a
16G	16f#	.
16BB	16e	.
16G	16d	.
16AA	16c#	.
16G	16e	.
=49	=49	=49
16F#	16d	4a]
16E	16e	.
16D	[4f#	.
16F#	.	.
16C#	.	8a
16F#	.	.
16BB	16f#]	[4.g
16F#	16e	.
16AA	16d	.
16F#	16c#	.
16GG	16B	.
16F#	16d	.
=50	=50	=50
16E	16c#	4g]
16D	16d	.
16C#	[4e	.
16E	.	.
16BB	.	8g
16E	.	.
16AA#	16e]	[4.f#
16E	16d	.
16GG#	16c#	.
16E	16B	.
16FF#	16A#	.
16E	16c#	.
=51	=51	=51
16D	8B	16f#]
16F#	.	16b
16E	8r	16cc#
16D	.	16b
16C#	8r	16a#
16BB	.	16b
16AA#	4r	8cc#
16C#	.	.
16BB	.	16dd
16AA#	.	16cc#
16GG#	8r	16b
16FF#	.	16cc#
=52	=52	=52
8BB	2.r	8dd
16C#	.	8cc#
16BB	.	.
16AA#	.	8b
16BB	.	.
8C#	.	8a#
16D	.	4gg
16C#	.	.
16BB	.	.
16C#	.	.
=53	=53	=53
8D	2.r	8ff#
8C#	.	16gg
.	.	16ff#
8BB	.	16ee
.	.	16dd
8AA#	.	8cc#
4G	.	16ee
.	.	16dd
.	.	16cc#
.	.	16b
=54	=54	=54
16F#	2.r	16a#
16G#	.	16b
16A#	.	16cc#
16F#	.	16a#
16B	.	16dd
16F#	.	16a#
16c#	.	16ee
16F#	.	16a#
16d	.	16ff#
16F#	.	16a#
16e	.	16gg
16F#	.	16a#
=55	=55	=55
16d	2.r	16ff#
16F#	.	16a#
16G	.	16b
16d	.	16ff#
32c#	.	32ee
32B	.	32dd
32A#	.	32cc#
32B	.	32dd
16c#	.	16ee
16E	.	16g#
16F#	.	16a#
16c#	.	16ee
32B	.	32dd
32A#	.	32cc#
32G#	.	32b
32A#	.	32cc#
=56	=56	=56
8B	16B	[2.dd
.	16c#	.
8r	16d	.
.	16B	.
8r	16e	.
.	16B	.
4r	16f#	.
.	16B	.
.	16g#	.
.	16B	.
8BB	16a	.
.	16B	.
=57	=57	=57
16E	8g#	2.dd_
16F#	.	.
16G#	8e	.
16E	.	.
16A	8f#	.
16E	.	.
16B	8g#	.
16E	.	.
16c#	8a	.
16E	.	.
16d	8b	.
16E	.	.
=58	=58	=58
8c#	8.e	16dd]
.	.	32f#
.	.	32g#
8r	.	16a
.	16d	16e
8r	16c#	16b
.	16B	16e
4r	16A	16cc#
.	16B	16e
.	16A	16dd
.	16Gn	16f#
8C#	16F#	16ee
.	16E	16gn
=59	=59	=59
8.D	8D	16f#
.	.	32g
.	.	32a
.	8r	16b
16E	.	16f#
16D	8r	16cc#
16C#	.	16f#
16BB	4r	16dd
16C#	.	16f#
16BB	.	16ee
16AA	.	16g
16GG	8r	16ff#
16FF#	.	16a
=60	=60	=60
8EE	4r	16g
.	.	16f#
8D	.	16g
.	.	16b
8C#	8r	16ee
.	.	16g
4D	8D	16f#
.	.	16b
.	16E	16a
.	16D	16cc#
8BB	16C#	[8dd
.	16D	.
=61	=61	=61
8GG	8E	8dd]
4AA	16F#	4cc#
.	16E	.
.	16D	.
.	16E	.
8D	8F#	8dd
8C#	8E	16ee
.	.	16dd
8BB	8D	16cc#
.	.	16dd
=62	=62	=62
[2.AA	8C#	8ee
.	4B	16ff#
.	.	16ee
.	.	16dd
.	.	16ee
.	8A	8ff#
.	16B	16gg
.	16A	16ff#
.	16G	16ee
.	16F#	16dd
=63	=63	=63
2.AA_	8E	8cc#
.	16G	[4bb
.	16F#	.
.	16E	.
.	16D	.
.	4C#	16bb]
.	.	16aa
.	.	16bb
.	.	16aa
.	[8D	16gg
.	.	16ff#
=64	=64	=64
4.AA_	16D]	[2.eeT
.	32G	.
.	32F#	.
.	16E	.
.	16G	.
.	16D	.
.	16G	.
4AA]	16C#	.
.	16G	.
.	16BB	.
.	16G	.
8r	16AA	.
.	16G	.
=65	=65	=65
8r	16F#	16ee]
.	16G	32aa
.	.	32gg
16r	[4A	16ff#
16E	.	16aa
16D	.	16ee
16C#	.	16aa
4BB	16A]	16dd
.	16G	16aa
.	16F#	16cc#
.	16E	16aa
8r	16D	16b
.	16F#	16aa
=66	=66	=66
8r	16E	16gg
.	16F#	16ff#
16r	[4G	16ee
16D	.	16gg
16C#	.	16dd
16BB	.	16gg
4AA	16G]	16cc#
.	16F#	16gg
.	16E	16b
.	16D	16gg
8r	16C#	16a
.	16E	16gg
=67	=67	=67
8r	16D	16ff#
.	16E	16ee
16r	[4F#	16dd
16C#	.	16ff#
16BB	.	16cc#
16AA	.	16ff#
8GG	16F#]	16b
.	16BB	16ff#
8r	16C#	16a
.	16D	16ff#
8r	16E	16g
.	16F#	16ff#
=68	=68	=68
4r	16G	16ee
.	16A	16dd
.	16G	16cc#
.	16F#	16ee
8r	16E	16b
.	16D	16ee
16r	8C#	16a
16AA	.	16ee
16BB	8r	16g
16C#	.	16ee
16D	8r	16f#
16E	.	16ee
=69	=69	=69
16F#	2.r	16dd
16G	.	16f#
8A	.	16e
.	.	16g
8AA	.	16dd
.	.	16cc#
8D	.	[4.ddT
16Cn	.	.
16D	.	.
16E	.	.
16D	.	.
=70	=70	=70
8C	4r	2.dd_
16BB	.	.
16C	.	.
16D	8r	.
16C	.	.
8BB	16r	.
.	16g	.
8C	16fn	.
.	16e	.
8D	16d	.
.	16f	.
=71	=71	=71
8G	16e	8dd]
.	16fn	.
4AA	16e	[4cc
.	16d	.
.	16c	.
.	16e	.
8BB	16d	8cc]
.	16e	.
8C	16d	[4b
.	16c	.
8D	16B	.
.	16d	.
=72	=72	=72
8E	16c	8b]
.	16d	.
4FF#	16c	[4a
.	16B	.
.	16A	.
.	16c	.
8GG	4.B	16a]
.	.	16g
16FF#	.	16a
16GG	.	16g
16AA	.	16f#
16BB	.	16g
=73	=73	=73
8CC	8A	16f#
.	.	32d
.	.	32e
16c	8r	16f#
16B	.	16d
16A	8r	16g
16G	.	16d
16F#	4r	16a
16E	.	16d
16D	.	16b
16C	.	16d
16BB	8r	16cc
16AA	.	16d
=74	=74	=74
16GG	2.r	16b
16AA	.	16gg
16BB	.	16ffn
16GG	.	16ee
16C	.	16dd
16GG	.	16cc
16D	.	16b
16GG	.	16a
16E	.	16g
16GG	.	16fn
16Fn	.	16e
16GG	.	16d
=75	=75	=75
16E	2.r	16c
32EE	.	16ee
32FF#	.	.
16GG#	.	16dd
16EE	.	16cc
16AA	.	16b
16EE	.	16a
16BB	.	16g#
16EE	.	16f#
16C	.	16e
16EE	.	16d
16D	.	16c
16EE	.	16B
=76	=76	=76
16C#	2.r	16A
16A	.	16B
16G	.	16c#
16F#	.	16A
16E	.	16d
16D	.	16A
16C#	.	16e
16BB	.	16A
16AA	.	16f#
16GG	.	16A
16FF#	.	16g
16EE	.	16A
=77	=77	=77
[2.DD	8d	8f#
.	16cn	8b
.	16d	.
.	16e	8g
.	16d	.
.	8c	8e
.	16B	8a
.	16c	.
.	16d	8f#
.	16c	.
=78	=78	=78
16DD]	8B	[4.g
16D	.	.
16C	8c	.
16D	.	.
16E	8d	.
16D	.	.
8C	8e	16g]
.	.	16a
16BB	4F#	8.aM
16C	.	.
16D	.	.
16C	.	32g
.	.	32a
=79	=79	=79
8BB	8G	8b
16AA	16a	16cc
16BB	16g	16b
16C	16f#	16a
16BB	16g	16b
8AA	8a	8cc
16GG	16b	16dd
16AA	16a	16cc
16BB	16g	16b
16AA	16a	16cc
=80	=80	=80
16GG	8b	8dd
32G	.	.
32F#	.	.
16E	8a	8cc
16G	.	.
16D	[8g	8b
16G	.	.
16C#	8g]	8a
16A	.	.
16BB	8dd	4gg
16A	.	.
16AA	8cc#	.
16A	.	.
=81	=81	=81
16D	8dd	8ff#
16Cn	.	.
16BB	8g	8ee
16D	.	.
16AA	8f#	8dd
16D	.	.
16GG	8e	8cc#
16E	.	.
16FF#	4cc#	4bb-
16E	.	.
16EE	.	.
16E	.	.
=82	=82	=82
8FF#	[4ccn	16aa
.	.	16gg
8DD	.	16ff#
.	.	16ee
8GG	16cc]	8dd
.	16cc	.
8EE	8b	16r
.	.	8gg
8CC	4a	.
.	.	16cc
8DD	.	16gg
.	.	16ff#
=83	=83	=83
[4.GG	8b	16gg
.	.	32ff#
.	.	32ee
.	8b	16dd
.	.	16gg
.	8a	16cc
.	.	16gg
16GG]	4g	8b
32GG	.	.
32AA	.	.
16BB	.	8gg
16GG	.	.
16C	8f#	8a
[16GG	.	.
=84	=84	=84
*^	*	*^
!! Five-voice material until the end:
8GG]	8D	8g	2.r	16b
.	.	.	.	32dd
.	.	.	.	32cc
[4GG	8GG	8g	.	16b
.	.	.	.	16dd
.	8BB	8fn	.	16a
.	.	.	.	16dd
4.GG_	32C	4e	.	8g
.	32BB	.	.	.
.	32C	.	.	.
.	32D	.	.	.
.	16E	.	.	[4cc
.	16C	.	.	.
.	16F#	8e-	.	.
.	16C	.	.	.
=85	=85	=85	=85	=85
2.GG_	[2.G	8d	4r	32cc]
.	.	.	.	32g
.	.	.	.	32a
.	.	.	.	32b
.	.	8en	.	16cc
.	.	.	.	16g
.	.	8fn	8b	16dd
.	.	.	.	16g
.	.	8g	8cc	32ee
.	.	.	.	32b
.	.	.	.	32cc
.	.	.	.	32dd
.	.	8g	8r	16ee
.	.	.	.	16cc
.	.	8a	8r	16ff#
.	.	.	.	16cc
=86	=86	=86	=86	=86
2.GG]	2.G]	4b	16r	[4gg
.	.	.	16dd	.
.	.	.	16ee	.
.	.	.	[16cc	.
.	.	8a	8cc]	16gg]
.	.	.	.	16ff#
.	.	4.b	4.dd	4.gg
==	==	==	==	==
*-	*-	*-	*-	*-
!!!CDT: 1685/3/-1750/7/28
!!!OCY: Deutschland
!!!PPP: Coethen; Cothen; Co2then
!!!ODT: <1722//
!!!PDT: 1722
!!!AFR: fuga; fugue
!!!AST: polyphony
!!!AMT: compound duple
!!!SCA: Bach-Werke-Verzeichnis
!!!YOR: Bach Gesellschaft
!!!SMS: British Library, various
!!!AIN: cemba; clavi
!!!EEV: 1.0
!!!RDT: 1986 November 21
!!!YER: 1994 August 10
!!!EFL: 15/48
!!!VTS: 3477573323
